Origami/64x64/apps/supertux.svg

<svg width="64" height="64" version="1" xmlns="http://www.w3.org/2000/svg">
 <path d="m12.339213 21.684182c-0.0128 0.287999-0.043 0.571997-0.043 0.861996 0 1.301994 0.177391 2.557989 0.425778 3.785983 0.113395-0.094 0.277179-0.241999 0.371178-0.315998-0.408198-1.387994-0.664397-2.837988-0.753996-4.331981zm39.321827 0.034c-0.092 1.483993-0.347979 2.919987-0.753957 4.297981 0.094 0.074 0.257999 0.221999 0.371978 0.315998 0.247999-1.227994 0.425978-2.483989 0.425978-3.785983 0-0.279999-0.032-0.549998-0.044-0.827996zm-40.611822 20.617909c-2.7529877 5.049978-6.1051729 5.335976-6.1051729 5.335976-0.5307977-1.487993-0.8055965-2.925987-0.8985961-4.311981-0.1275934 1.983992 0.1073956 4.091982 0.8985561 6.311973 0 0 3.3521852-0.285999 6.1051729-5.335977 0.664977 2.569989 1.800912 4.943978 3.300586 7.045969 0.385778-0.153999 0.788556-0.295999 1.214734-0.421998-2.12339-2.451989-3.679583-5.391976-4.51538-8.623962zm41.901816 0c-0.835956 3.231986-2.39379 6.171973-4.51578 8.623962 0.423978 0.125999 0.825956 0.267999 1.209934 0.421998 1.499934-2.101991 2.639789-4.47598 3.305786-7.045969 2.749788 5.047978 6.099773 5.335977 6.099773 5.335977 0.793957-2.221991 1.027955-4.337981 0.899956-6.323973-0.094 1.389994-0.365978 2.831988-0.899956 4.323981 0 0-3.349785-0.287998-6.099773-5.335976zm0.513978 14.335937c-0.893956 2.463989-4.957779 4.327981-9.843557 4.327981-3.757784 0-7.029569-1.105995-8.747562-2.733988-0.941955 0.121999-1.895911 0.209999-2.875787 0.209999-0.977956 0-1.929911-0.088-2.875787-0.209999-1.715913 1.627993-4.989778 2.733988-8.747562 2.733988-4.880178 0-8.94556-1.859992-9.844357-4.319981-0.110195 0.317998-0.187391 0.637997-0.187391 0.971996 0 2.953987 4.492581 5.347976 10.031756 5.347976 3.757784 0 7.031569-1.105995 8.747562-2.733988 0.945956 0.121999 1.897911 0.209999 2.875787 0.209999 0.979956 0 1.933912-0.088 2.875787-0.209999 1.717993 1.627993 4.989978 2.733988 8.747962 2.733988 5.541776 0 10.035556-2.395989 10.035556-5.347976 0-0.335999-0.08-0.659998-0.191979-0.979996z" style="opacity:.2"/>
 <path d="m50.911843 27.016163c0.512698-1.736413 0.795836-3.567785 0.795836-5.467376 0-10.795753-8.819961-19.547914-19.705913-19.547914-10.879952 0-19.703713 8.7503612-19.703713 19.547914 0 1.899611 0.285038 3.730983 0.795836 5.467376-2.481189 1.977411-12.111546 10.545553-8.1495639 21.655904 0 0 3.3515852-0.284658 6.1045729-5.334376 0.835997 3.231786 2.39319 6.167573 4.51678 8.621362-3.110586 0.908996-5.220777 2.671988-5.220777 4.694979 0 2.952787 4.491781 5.345777 10.030156 5.345777 3.759184 0 7.032369-1.104475 8.748362-2.732788 0.945036 0.123359 1.897751 0.208759 2.875387 0.208759 0.979476 0 1.934092-0.0854 2.875387-0.208759 1.719833 1.628233 4.991178 2.732788 8.750362 2.732788 5.540176 0 10.033956-2.39499 10.033956-5.345777 0-2.020991-2.111991-3.785983-5.222577-4.694979 2.12159-2.453789 3.682584-5.389576 4.51858-8.621362 2.750988 5.047978 6.098773 5.334376 6.098773 5.334376 3.967583-11.112951-5.662575-19.681113-8.141964-21.655904z" style="fill:#4f4f4f"/>
 <circle cx="22" cy="16" r="4" style="fill:#ffffff"/>
 <circle cx="42" cy="16" r="4" style="fill:#ffffff"/>
 <ellipse cx="32" cy="38" rx="14" ry="16" style="fill:#ffffff"/>
 <path d="m27.999944 20.000194h7.999964c-0.641217 6.162772-3.999982 11.999947-3.999982 11.999947s-3.999982-6.92737-3.999982-11.999947z" style="opacity:.2"/>
 <circle cx="24" cy="17" r="2" style="fill:#303030"/>
 <circle cx="44" cy="17" r="2" style="fill:#303030"/>
 <path d="m27.999944 18.000202h7.999964c-0.641217 6.162773-3.999982 11.999948-3.999982 11.999948s-3.999982-6.92737-3.999982-11.999948z" style="fill:#cd5252"/>
 <path d="m32.001953 2c-10.879952 0-19.703125 8.751275-19.703125 19.548828 0 0.138605 0.012613 0.274241 0.015625 0.41211 0.314231-10.52472 9.006272-18.958985 19.6875-18.958985 10.687118 0 19.375354 8.4359049 19.689453 18.958985 0.002994-0.137867 0.015625-0.273506 0.015625-0.41211 0-10.795753-8.819126-19.548828-19.705078-19.548828zm-19.119141 25.195312c-2.297428 1.867538-9.1284585 8.137496-8.8710932 16.605469 0.2870862-8.179482 7.0592052-14.173043 9.0820312-15.785156-0.079445-0.270064-0.142638-0.545754-0.210938-0.820313zm38.240235 0c-0.068433 0.274561-0.131197 0.550246-0.210938 0.820313 2.020894 1.609607 8.7893 7.601363 9.076172 15.779297 0.258402-8.467387-6.569614-14.734448-8.865234-16.59961zm-36.197266 24.980469c-2.749278 0.954651-4.580078 2.600497-4.580078 4.478516 0 0.190731 0.020087 0.378887 0.056641 0.564453 0.280072-1.837221 2.28051-3.417115 5.164062-4.259766-0.220897-0.255244-0.432159-0.517737-0.640625-0.783203zm34.148438 0.001953c-0.207841 0.264718-0.418582 0.526699-0.638672 0.78125 2.882966 0.84248 4.885065 2.424365 5.166015 4.259766 0.036579-0.185488 0.056641-0.37383 0.056641-0.564453 0-1.876501-1.833653-3.521755-4.583984-4.476563z" style="fill:#ffffff;opacity:.1"/>
</svg>

<svg xmlns="http://www.w3.org/2000/svg" width="64" height="64" version="1">
 <path style="opacity:0.2" d="m 12.339213,21.684182 c -0.0128,0.287999 -0.043,0.571997 -0.043,0.861996 0,1.301994 0.177391,2.557989 0.425778,3.785983 0.113395,-0.094 0.277179,-0.241999 0.371178,-0.315998 -0.408198,-1.387994 -0.664397,-2.837988 -0.753996,-4.331981 z m 39.321827,0.034 c -0.092,1.483993 -0.347979,2.919987 -0.753957,4.297981 0.094,0.074 0.257999,0.221999 0.371978,0.315998 0.247999,-1.227994 0.425978,-2.483989 0.425978,-3.785983 0,-0.279999 -0.032,-0.549998 -0.044,-0.827996 z M 11.049218,42.336091 C 8.2962303,47.386069 4.9440451,47.672067 4.9440451,47.672067 4.4132474,46.184074 4.1384486,44.74608 4.045449,43.360086 c -0.1275934,1.983992 0.1073956,4.091982 0.8985561,6.311973 0,0 3.3521852,-0.285999 6.1051729,-5.335977 0.664977,2.569989 1.800912,4.943978 3.300586,7.045969 0.385778,-0.153999 0.788556,-0.295999 1.214734,-0.421998 -2.12339,-2.451989 -3.679583,-5.391976 -4.51538,-8.623962 z m 41.901816,0 c -0.835956,3.231986 -2.39379,6.171973 -4.51578,8.623962 0.423978,0.125999 0.825956,0.267999 1.209934,0.421998 1.499934,-2.101991 2.639789,-4.47598 3.305786,-7.045969 2.749788,5.047978 6.099773,5.335977 6.099773,5.335977 0.793957,-2.221991 1.027955,-4.337981 0.899956,-6.323973 -0.094,1.389994 -0.365978,2.831988 -0.899956,4.323981 0,0 -3.349785,-0.287998 -6.099773,-5.335976 z m 0.513978,14.335937 c -0.893956,2.463989 -4.957779,4.327981 -9.843557,4.327981 -3.757784,0 -7.029569,-1.105995 -8.747562,-2.733988 -0.941955,0.121999 -1.895911,0.209999 -2.875787,0.209999 -0.977956,0 -1.929911,-0.088 -2.875787,-0.209999 -1.715913,1.627993 -4.989778,2.733988 -8.747562,2.733988 -4.880178,0 -8.94556,-1.859992 -9.844357,-4.319981 -0.110195,0.317998 -0.187391,0.637997 -0.187391,0.971996 0,2.953987 4.492581,5.347976 10.031756,5.347976 3.757784,0 7.031569,-1.105995 8.747562,-2.733988 0.945956,0.121999 1.897911,0.209999 2.875787,0.209999 0.979956,0 1.933912,-0.088 2.875787,-0.209999 C 36.591894,61.894005 39.863879,63 43.621863,63 c 5.541776,0 10.035556,-2.395989 10.035556,-5.347976 0,-0.335999 -0.08,-0.659998 -0.191979,-0.979996 z"/>
 <path style="fill:#4f4f4f" d="m 50.911843,27.016163 c 0.512698,-1.736413 0.795836,-3.567785 0.795836,-5.467376 0,-10.795753 -8.819961,-19.5479142 -19.705913,-19.5479142 -10.879952,0 -19.703713,8.7503612 -19.703713,19.5479142 0,1.899611 0.285038,3.730983 0.795836,5.467376 -2.481189,1.977411 -12.11154649,10.545553 -8.1495639,21.655904 0,0 3.3515852,-0.284658 6.1045729,-5.334376 0.835997,3.231786 2.39319,6.167573 4.51678,8.621362 -3.110586,0.908996 -5.220777,2.671988 -5.220777,4.694979 0,2.952787 4.491781,5.345777 10.030156,5.345777 3.759184,0 7.032369,-1.104475 8.748362,-2.732788 0.945036,0.123359 1.897751,0.208759 2.875387,0.208759 0.979476,0 1.934092,-0.0854 2.875387,-0.208759 1.719833,1.628233 4.991178,2.732788 8.750362,2.732788 5.540176,0 10.033956,-2.39499 10.033956,-5.345777 0,-2.020991 -2.111991,-3.785983 -5.222577,-4.694979 2.12159,-2.453789 3.682584,-5.389576 4.51858,-8.621362 2.750988,5.047978 6.098773,5.334376 6.098773,5.334376 C 63.02087,37.559116 53.390712,28.990954 50.911323,27.016163 Z"/>
 <circle style="fill:#ffffff" cx="22" cy="16" r="4"/>
 <circle style="fill:#ffffff" cx="42" cy="16" r="4"/>
 <ellipse style="fill:#ffffff" cx="32" cy="38" rx="14" ry="16"/>
 <path style="opacity:0.2" d="m 27.999944,20.000194 7.999964,0 c -0.641217,6.162772 -3.999982,11.999947 -3.999982,11.999947 0,0 -3.999982,-6.92737 -3.999982,-11.999947 z"/>
 <circle style="fill:#303030" cx="24" cy="17" r="2"/>
 <circle style="fill:#303030" cx="44" cy="17" r="2"/>
 <path style="fill:#cd5252" d="m 27.999944,18.000202 7.999964,0 c -0.641217,6.162773 -3.999982,11.999948 -3.999982,11.999948 0,0 -3.999982,-6.92737 -3.999982,-11.999948 z"/>
 <path style="fill:#ffffff;opacity:0.1" d="M 32.001953 2 C 21.122001 2 12.298828 10.751275 12.298828 21.548828 C 12.298828 21.687433 12.311441 21.823069 12.314453 21.960938 C 12.628684 11.436218 21.320725 3.0019531 32.001953 3.0019531 C 42.689071 3.0019531 51.377307 11.437858 51.691406 21.960938 C 51.6944 21.823071 51.707031 21.687432 51.707031 21.548828 C 51.707031 10.753075 42.887905 2 32.001953 2 z M 12.882812 27.195312 C 10.585384 29.06285 3.7543535 35.332808 4.0117188 43.800781 C 4.298805 35.621299 11.070924 29.627738 13.09375 28.015625 C 13.014305 27.745561 12.951112 27.469871 12.882812 27.195312 z M 51.123047 27.195312 C 51.054614 27.469873 50.99185 27.745558 50.912109 28.015625 C 52.933003 29.625232 59.701409 35.616988 59.988281 43.794922 C 60.246683 35.327535 53.418667 29.060474 51.123047 27.195312 z M 14.925781 52.175781 C 12.176503 53.130432 10.345703 54.776278 10.345703 56.654297 C 10.345703 56.845028 10.36579 57.033184 10.402344 57.21875 C 10.682416 55.381529 12.682854 53.801635 15.566406 52.958984 C 15.345509 52.70374 15.134247 52.441247 14.925781 52.175781 z M 49.074219 52.177734 C 48.866378 52.442452 48.655637 52.704433 48.435547 52.958984 C 51.318513 53.801464 53.320612 55.383349 53.601562 57.21875 C 53.638141 57.033262 53.658203 56.84492 53.658203 56.654297 C 53.658203 54.777796 51.82455 53.132542 49.074219 52.177734 z"/>
</svg>
